X: 7988
T:Vall\aa{}t
R:Vall\aa{}t
O:Sweden
M:4/4
K:Am
A2 | A3^c d2e2 | f4 a2g2 | e2fe d2^c2 | A4 \
FGAB | c3d c2B2 | G4 GABc | d2ed B2G2 | A6 :|
A2 | \
A2F2 FGFE | F2A2 c2A2 | A2G2 GAGE | G2B2 d2e2 |\
f2gf e2^c2 | A4 ^cdef | g2ag e2^c2 | d6 |]
